X: 89
T: No_179_Song_of_an_Old_Dance_(b).krn
N: Derived from No_179_Song_of_an_Old_Dance_(b).krn
%%abc-version 2.0
%%abcx-abcm2ps-target-version 5.9.1 (29 Sep 2008)
%%abc-creator hum2abc beta
%%abcx-conversion-date 2019/03/15 08:38:45
%%humdrum-veritas 2971943876
%%humdrum-veritas-data 1735479444
%%linebreak <none>
%%barnumbers 0
L: 1/8
M: 2/4
K: Bb clef=bass
[K:clef=bass][M:2/4]B,3/B,/ G,/D,3/ ||  
[M:3/4]F,3/F,/ F,F, D,D, ||  
[M:5/8]F,F,F,F,/F,3/ ||  
[M:2/4]F,3/F,/ F, z | 
G,3/A,/ G,/D,3/ ||  
[M:3/4]F,3/G,/ F,/D,3/ B,,B,, ||  
[M:2/4](3F,F,F,-F,2 | 
F,2F,F, | 
B,3/B,/ G,/D,3/ ||  
[M:3/4]F,3/F,/ F,F, D,D, ||  
[M:5/8]F,F,F,F,2 ||  
[M:2/4]F,3/F,/F,2 | 
G,3/A,/ G,/D,3/ ||  
[M:3/4]F,3/G,/ F,/D,3/ B,,!fermata!B,, ||  
[M:2/4]F,2F,2 | 
F,3/F,/F,2 | 
B,3/B,/ G,/D,3/ ||  
[M:3/4]F,3/F,/ F,F, D,D, ||  
[M:5/8]F,F,F,F,/F,3/ ||  
[M:2/4]F,3/F,/ F, z | 
G,3/A,/ G,/D,3/ ||  
[M:3/4]F,3/G,/ F,/D,3/ B,,B,, ||  
[M:2/4](3F,F,F,F,2 | 
(3F,F,F,F,2 |]  



